X:1
T:Title
%%score 1 { 2 | 3 }
L:1/8
Q:1/4=98
M:4/4
K:F
V:1 treble nm="Grand Piano, Soprano"
V:2 bass nm="Choir Pad, From the Cyber Hymnal™"
V:3 bass 
V:1
 C[CF] [FA]2 [FG][FA] F2 | [FA][GB] [Ac]2 [FA][GB] [Ac]2 | F[FG] [FA]2 [FA]C [EG]2 | [EG][EA] F6 | %4
w: By~J.~W.~Cullom * * * * *||||
 C[CF] [FA]2 [FG][FA] F2 | [FA][GB] [Ac]2 [FA][GB] [Ac]2 | F[FG] [FA]2 [FA]C [EG]2 | [EG][EA] F6 | %8
w: ||||
 [CF]2 [DF]2 [FB][Fd] [Ff]2 | [Fe][Fd] [Fc]2 [FA][GB] [Ac]2 | F[FG] [FA]2 [FA][FA] [FA]2 | %11
w: |||
 [FG]F [EG]6 | C[CF] [FA]2 [FG][FA] F2 | [FA][GB] [Ac]2 [FA][GB] [Ac]2 | %14
w: |||
 [FA][Fc] [Af]2 F[FG] [FA]2 | [FA][EG] F6- | F2 z2 z4 |] %17
w: |||
V:2
 A,A, C2 B,C A,2 | CC F2 CC F2 | A,B, C2 CA, B,2 | B,C A,6 | A,A,[K:treble] C2 B,C A,2 | %5
 CC F2 CC F2 | A,B, C2 CA, B,2 | B,C A,6 | A,2 B,2[K:treble] DB, D2 | CB, A,2 CC F2 | %10
 A,B, C2 C C2 C | B,A, C6 | A,A,[K:treble] C2 B,C A,2 | CC F2 CC F2 | CA, C2 CD[K:bass] C2 | %15
 CB, A,6- | A,2 z2 z4 |] %17
V:3
 F,F, F,2 F,F, F,2 | F,F, F,2 F,F, F,2 | F,F, F,2 F,F, C,2 | C,C, F,6 | F,F, F,2 F,F, F,2 | %5
 F,F, F,2 F,F, F,2 | F,F, F,2 F,F, C,2 | C,C, F,6 | F,2 B,,2 B,,B,, B,,2 | B,,B,, F,2 F,F, F,2 | %10
 F,F, F,2 F, F,2 F, | F,F, C,6 | F,F, F,2 F,F, F,2 | F,F, F,2 F,F, F,2 | F,F, F,2 A,,B,, C,2 | %15
 C,C, F,6- | F,2 z2 z4 |] %17

